X: 1
T:The New Fiddle Rag
M:4/4
L:1/8
C:Stephen McNally
S: 1999
K:G
A2|:B>Dc>D B>Dc>B-|B>Dc>D B>AG>A|B>Dc>D B>Dc>D|B>Dc>d- d2-d>D|
A>DB>D A>DB>A-|A>DB>D A>G F2 |1 d2-d>d d>BA>B-|B6- B>A :|2 d3d d>BA>F|G4 G>AB>d|
|:e>eef g>gg>e|d>Bd>e B2- B>D|c>DB>A- A>DA>D|B>DA>G- G2-G>d|
e>ee>f g>gg>e|d>Bd>e B2-B>G|c>DA>F- F>DE>F |1 G>GG>F G>AB>d :|2 G>GG>F G4|
